res/skins/Tango/buttons/btn_lib_radio_button_on.svg

<?xml version="1.0" encoding="UTF-8" standalone="no"?>
<!-- Created with Inkscape (http://www.inkscape.org/) -->

<svg
   xmlns:dc="http://purl.org/dc/elements/1.1/"
   xmlns:cc="http://creativecommons.org/ns#"
   xmlns:rdf="http://www.w3.org/1999/02/22-rdf-syntax-ns#"
   xmlns:svg="http://www.w3.org/2000/svg"
   xmlns="http://www.w3.org/2000/svg"
   version="1.1"
   width="100%"
   height="100%"
   viewBox="0 0 18 18"
   id="svg2">
  <metadata
     id="metadata12">
    <rdf:RDF>
      <cc:Work
         rdf:about="">
        <dc:format>image/svg+xml</dc:format>
        <dc:type
           rdf:resource="http://purl.org/dc/dcmitype/StillImage" />
        <dc:title></dc:title>
      </cc:Work>
    </rdf:RDF>
  </metadata>
  <defs
     id="defs10" />
  <path
     d="M 9,4.2652658 C 6.3864267,4.2652658 4.2652658,6.3864267 4.2652658,9 c 0,2.613573 2.1211609,4.734734 4.7347342,4.734734 2.613573,0 4.734734,-2.121161 4.734734,-4.734734 C 13.734734,6.3864267 11.613573,4.2652658 9,4.2652658 z"
     id="path2987"
     style="fill:#ff8800;fill-opacity:1" />
  <path
     d="M 9,2 C 5.1325,2 2,5.1325 2,9 c 0,3.8675 3.1325,7 7,7 3.8675,0 7,-3.1325 7,-7 C 16,5.1325 12.868,2 9,2 z M 9,3.40625 C 12.094,3.40625 14.59375,5.906 14.59375,9 14.59375,12.094 12.094,14.59375 9,14.59375 5.906,14.59375 3.40625,12.094 3.40625,9 3.40625,5.906 5.906,3.40625 9,3.40625 z"
     id="path2985"
     style="fill:#d2d2d2;fill-opacity:1" />
</svg>

<!-- Created with Inkscape (http://www.inkscape.org/) -->
<svg id="svg2" version="1.1" viewBox="0 0 18 18" xmlns="http://www.w3.org/2000/svg"><path id="path2987" d="m9 4.2653c-2.6136 0-4.7347 2.1212-4.7347 4.7347 0 2.6136 2.1212 4.7347 4.7347 4.7347 2.6136 0 4.7347-2.1212 4.7347-4.7347 0-2.6136-2.1212-4.7347-4.7347-4.7347z" fill="#f80"/><path id="path2985" d="m9 2c-3.8675 0-7 3.1325-7 7s3.1325 7 7 7 7-3.1325 7-7-3.132-7-7-7zm0 1.4062c3.094 0 5.5938 2.4998 5.5938 5.5938s-2.4998 5.5938-5.5938 5.5938-5.5938-2.4998-5.5938-5.5938 2.4998-5.5938 5.5938-5.5938z" fill="#d2d2d2"/></svg>
